.icons/oomox-modus-operandi/16/mimetypes/text-x-nim.svg

<?xml version="1.0" encoding="UTF-8" standalone="no"?>
<svg
   xmlns:dc="http://purl.org/dc/elements/1.1/"
   xmlns:cc="http://creativecommons.org/ns#"
   xmlns:rdf="http://www.w3.org/1999/02/22-rdf-syntax-ns#"
   xmlns:svg="http://www.w3.org/2000/svg"
   xmlns="http://www.w3.org/2000/svg"
   xmlns:sodipodi="http://sodipodi.sourceforge.net/DTD/sodipodi-0.dtd"
   xmlns:inkscape="http://www.inkscape.org/namespaces/inkscape"
   viewBox="0 0 16 16"
   id="svg2"
   version="1.1"
   inkscape:version="0.91 r13725"
   sodipodi:docname="text-x-nim.svg">
  <metadata
     id="metadata16">
    <rdf:RDF>
      <cc:Work
         rdf:about="">
        <dc:format>image/svg+xml</dc:format>
        <dc:type
           rdf:resource="http://purl.org/dc/dcmitype/StillImage" />
        <dc:title />
      </cc:Work>
    </rdf:RDF>
  </metadata>
  <defs
     id="defs14" />
  <sodipodi:namedview
     pagecolor="#ffffff"
     bordercolor="#666666"
     borderopacity="1"
     objecttolerance="10"
     gridtolerance="10"
     guidetolerance="10"
     inkscape:pageopacity="0"
     inkscape:pageshadow="2"
     inkscape:window-width="1600"
     inkscape:window-height="880"
     id="namedview12"
     showgrid="false"
     inkscape:zoom="101.86673"
     inkscape:cx="8.0000002"
     inkscape:cy="7.2591599"
     inkscape:window-x="0"
     inkscape:window-y="20"
     inkscape:window-maximized="1"
     inkscape:current-layer="svg2" />
  <path
     d="m 2.668 0 c -0.344 0 -0.668 0.338 -0.668 0.697 l 0 14.607 c 0 0.338 0.344 0.697 0.668 0.697 l 10.664 0 c 0.324 0 0.668 -0.359 0.668 -0.697 l 0 -11.304 -4 -4 z"
     style="fill:#efc743;fill-opacity:1"
     id="path4" />
  <path
     d="m 10.583 3.332 0.015 0.02 0.04 -0.02 z m 0.03 0.668 3.387 3.664 0 -3.664 z"
     style="fill:#000;fill-opacity:0.196"
     id="path6" />
  <path
     d="m 10 0 3.996 4 -3.384 0 c -0.299 0 -0.613 -0.317 -0.613 -0.616 z"
     style="fill:#fff;fill-opacity:0.392"
     id="path8" />
  <path
     style="fill:#ffffff;fill-opacity:1"
     d="M 7.7416461,11.994506 C 7.1276779,11.941667 6.5179787,11.767795 5.9910214,11.495267 5.512807,11.247951 5.1476362,10.940101 4.9142414,10.587508 4.5155867,9.7317194 4.4456975,9.4014773 4.0517124,8.2906517 4.0392111,8.2595043 3.6965056,6.8417877 3.7000284,6.8357529 c 0.20421,0.081708 0.3581511,0.1480216 0.5771051,0.238514 L 4.3802292,6.9738092 C 4.5248591,6.8328805 4.6746002,6.7238577 4.8895078,6.6030157 l 0.065569,-0.036871 C 5.0760166,6.3002245 5.2185642,6.0358423 5.3475736,5.7785368 5.5738974,5.9480867 5.7482618,6.086754 5.9851304,6.2698661 c 0.00545,0.00418 0.073109,-0.00845 0.1848472,-0.034474 C 6.6399353,6.1258893 6.8901557,6.0889432 7.2049735,6.0825666 l 0.1701046,-0.00344 C 7.5823102,5.8792198 7.79099,5.6807523 7.9989849,5.4816798 8.2197019,5.6911781 8.3863888,5.8523585 8.6228925,6.0791263 l 0.1701014,0.00344 c 0.3122654,0.00632 0.5608054,0.042524 1.0109831,0.1472474 0.095687,0.022269 0.1804991,0.041756 0.1884723,0.043332 0.2460167,-0.1674243 0.3948807,-0.29417 0.6625917,-0.4978905 0.141696,0.2759625 0.241426,0.4903472 0.387629,0.7904246 l 0.04756,0.026414 c 0.217515,0.1207743 0.383418,0.2408303 0.527686,0.3818611 l 0.103178,0.1008618 c 0.204852,-0.085507 0.400203,-0.1665098 0.578905,-0.2408611 -0.122602,0.5189213 -0.249926,1.0345545 -0.351463,1.4494572 -0.26663,0.7547861 -0.480448,1.3612887 -0.772407,2.1518882 -0.277335,0.514531 -0.829122,0.950109 -1.5774412,1.245226 -0.3813043,0.150374 -0.7803007,0.250072 -1.2010428,0.300109 -0.1478637,0.0176 -0.5212482,0.0255 -0.6560308,0.01389 z M 7.9991913,8.9841361 C 8.5826371,9.3078512 9.0386766,9.566969 9.6564206,9.914086 9.9872844,9.8373491 10.158968,9.7765322 10.560214,9.6568852 10.815667,9.3801082 11.026312,9.0190424 11.19492,8.7764918 11.171063,8.7062019 11.094513,8.55768 11.041694,8.4791252 10.738894,8.0288025 10.142009,7.6412355 9.4108195,7.4201725 8.692623,7.2030381 7.8751668,7.1584872 7.1037263,7.2944406 6.096525,7.4719411 5.2515763,7.9580274 4.9058227,8.5588656 4.8629603,8.6333537 4.8127643,8.7404975 4.7986517,8.7876341 4.9667461,9.0883178 5.2472944,9.4100231 5.4373597,9.6563921 5.7346034,9.74979 6.0366831,9.8309909 6.3353359,9.9172725 6.9207154,9.5891406 7.3782701,9.3311623 7.9991913,8.9841361 Z"
     id="path4849"
     inkscape:connector-curvature="0"
     sodipodi:nodetypes="csccccscccccccccccccccsccccsccccccccssccccc" />
</svg>

<svg version="1.1" viewBox="0 0 16 16" xmlns="http://www.w3.org/2000/svg">
 <path d="m2.668 0c-0.344 0-0.668 0.338-0.668 0.697v14.607c0 0.338 0.344 0.697 0.668 0.697h10.664c0.324 0 0.668-0.359 0.668-0.697v-11.304l-4-4z" style="fill:#efc743"/>
 <path d="m10.583 3.332 0.015 0.02 0.04-0.02zm0.03 0.668 3.387 3.664v-3.664z" style="fill-opacity:.196"/>
 <path d="m10 0 3.996 4h-3.384c-0.299 0-0.613-0.317-0.613-0.616z" style="fill-opacity:.392;fill:#fff"/>
 <path d="m7.7416 11.995c-0.61397-0.052839-1.2237-0.22671-1.7506-0.49924-0.47821-0.24732-0.84339-0.55517-1.0768-0.90776-0.39865-0.85579-0.46854-1.186-0.86253-2.2969-0.012501-0.031147-0.35521-1.4489-0.35168-1.4549 0.20421 0.081708 0.35815 0.14802 0.57711 0.23851l0.1031-0.10046c0.14463-0.14093 0.29437-0.24995 0.50928-0.37079l0.065569-0.036871c0.12094-0.26592 0.26349-0.5303 0.3925-0.78761 0.22632 0.16955 0.40069 0.30822 0.63756 0.49133 0.00545 0.00418 0.073109-0.00845 0.18485-0.034474 0.46996-0.1095 0.72018-0.14645 1.035-0.15283l0.1701-0.00344c0.20723-0.19991 0.41591-0.39837 0.62391-0.59745 0.22072 0.2095 0.3874 0.37068 0.62391 0.59745l0.1701 0.00344c0.31227 0.00632 0.56081 0.042524 1.011 0.14725 0.095687 0.022269 0.1805 0.041756 0.18847 0.043332 0.24602-0.16742 0.39488-0.29417 0.66259-0.49789 0.1417 0.27596 0.24143 0.49035 0.38763 0.79042l0.04756 0.026414c0.21752 0.12077 0.38342 0.24083 0.52769 0.38186l0.10318 0.10086c0.20485-0.085507 0.4002-0.16651 0.5789-0.24086-0.1226 0.51892-0.24993 1.0346-0.35146 1.4495-0.26663 0.75479-0.48045 1.3613-0.77241 2.1519-0.27734 0.51453-0.82912 0.95011-1.5774 1.2452-0.3813 0.15037-0.7803 0.25007-1.201 0.30011-0.14786 0.0176-0.52125 0.0255-0.65603 0.01389zm0.25755-3.0104c0.58345 0.32372 1.0395 0.58283 1.6572 0.92995 0.33086-0.076737 0.50255-0.13755 0.90379-0.2572 0.25545-0.27678 0.4661-0.63784 0.63471-0.88039-0.023857-0.07029-0.10041-0.21881-0.15323-0.29737-0.3028-0.45032-0.89968-0.83789-1.6309-1.059-0.7182-0.21713-1.5357-0.26169-2.3071-0.12573-1.0072 0.1775-1.8522 0.66359-2.1979 1.2644-0.042862 0.074488-0.093058 0.18163-0.10717 0.22877 0.16809 0.30068 0.44864 0.62239 0.63871 0.86876 0.29724 0.093398 0.59932 0.1746 0.89798 0.26088 0.58538-0.32813 1.0429-0.58611 1.6639-0.93314z" style="fill:#fff"/>
</svg>
